; generated by PrusaSlicer 2.3.3+linux-x64 on 2024-08-07 at 10:30:12 UTC

; 

; external perimeters extrusion width = 0.45mm
; perimeters extrusion width = 0.45mm
; infill extrusion width = 0.45mm
; solid infill extrusion width = 0.45mm
; top infill extrusion width = 0.40mm
; first layer extrusion width = 0.42mm

M201 X500 Y500 Z100 E5000 ; sets maximum accelerations, mm/sec^2
M203 X500 Y500 Z10 E60 ; sets maximum feedrates, mm/sec
M204 P500 R1000 T500 ; sets acceleration (P, T) and retract acceleration (R), mm/sec^2
M205 X8.00 Y8.00 Z0.40 E5.00 ; sets the jerk limits, mm/sec
M205 S0 T0 ; sets the minimum extruding and travel feed rate, mm/sec
M107
;TYPE:Custom
G90 ; use absolute coordinates
M83 ; extruder relative mode
M140 S60 ; set final bed temp
M104 S150 ; set temporary nozzle temp to prevent oozing during homing
G4 S10 ; allow partial nozzle warmup
G28 ; home all axis
G1 Z50 F240
G1 X2 Y10 F3000
M104 S210 ; set final nozzle temp
M190 S60 ; wait for bed temp to stabilize
M109 S210 ; wait for nozzle temp to stabilize
G1 Z0.28 F240
G92 E0
G1 Y140 E10 F1500 ; prime the nozzle
G1 X2.3 F5000
G92 E0
G1 Y10 E10 F1200 ; prime the nozzle
G92 E0
G21 ; set units to millimeters
G90 ; use absolute coordinates
M83 ; use relative distances for extrusion
; Filament gcode
;LAYER_CHANGE
;Z:0.2
;HEIGHT:0.2
;BEFORE_LAYER_CHANGE
G92 E0
;0.2


G1 E-5.00000 F3600.000
G1 Z0.200 F9000.000
;AFTER_LAYER_CHANGE
;0.2
G1 X85.750 Y85.306
G1 E5.00000 F2400.000
M204 S500
;TYPE:Skirt
;WIDTH:0.42
G1 F1200.000
G1 X86.889 Y85.153 E0.03604
G1 X143.818 Y85.128 E1.78499
G1 X145.071 Y85.267 E0.03951
G1 X146.282 Y85.597 E0.03937
G1 X147.877 Y86.354 E0.05536
G1 X148.984 Y87.167 E0.04305
G1 X150.176 Y88.439 E0.05465
G1 X150.869 Y89.512 E0.04008
G1 X151.274 Y90.378 E0.02995
G1 X151.565 Y91.241 E0.02857
G1 X151.823 Y92.564 E0.04227
G1 X151.877 Y93.483 E0.02886
G1 X151.872 Y137.681 E1.38579
G1 X151.807 Y138.573 E0.02804
G1 X151.619 Y139.556 E0.03137
G1 X151.308 Y140.527 E0.03195
G1 X150.940 Y141.336 E0.02789
G1 X150.202 Y142.518 E0.04368
G1 X148.989 Y143.819 E0.05576
G1 X147.991 Y144.566 E0.03908
G1 X146.891 Y145.152 E0.03908
G1 X145.224 Y145.691 E0.05493
G1 X143.925 Y145.860 E0.04107
G1 X87.154 Y145.862 E1.78001
G1 X85.769 Y145.689 E0.04376
G1 X84.889 Y145.455 E0.02858
G1 X83.965 Y145.090 E0.03114
G1 X82.841 Y144.453 E0.04050
G1 X82.131 Y143.926 E0.02772
G1 X81.383 Y143.219 E0.03227
G1 X80.607 Y142.249 E0.03894
G1 X80.146 Y141.506 E0.02744
G1 X79.727 Y140.617 E0.03081
G1 X79.349 Y139.415 E0.03951
G1 X79.127 Y137.652 E0.05571
G1 X79.123 Y93.459 E1.38565
G1 X79.186 Y92.471 E0.03103
G1 X79.346 Y91.589 E0.02810
G1 X79.778 Y90.259 E0.04386
G1 X80.168 Y89.444 E0.02832
G1 X80.716 Y88.581 E0.03205
G1 X81.371 Y87.785 E0.03232
G1 X82.011 Y87.171 E0.02780
G1 X83.005 Y86.426 E0.03894
G1 X84.080 Y85.851 E0.03823
G1 X85.693 Y85.325 E0.05320
G1 E-3.50000 F3600.000
;WIPE_START
G1 F7200.000
G1 X86.889 Y85.153 E-0.57403
G1 X88.680 Y85.152 E-0.85097
;WIPE_END
G1 E-0.07500 F3600.000
G1 X86.313 Y89.357 F9000.000
G1 E5.00000 F2400.000
;TYPE:Perimeter
G1 F1200.000
G1 X86.313 Y101.182 E0.37076
G1 X138.687 Y101.182 E1.64215
G1 X138.687 Y89.192 E0.37594
G1 X143.771 Y89.192 E0.15939
G1 X144.308 Y89.260 E0.01698
G1 X144.832 Y89.395 E0.01698
G1 X145.336 Y89.594 E0.01698
G1 X145.810 Y89.855 E0.01698
G1 X146.248 Y90.173 E0.01698
G1 X146.643 Y90.544 E0.01698
G1 X146.988 Y90.961 E0.01698
G1 X147.278 Y91.418 E0.01698
G1 X147.509 Y91.908 E0.01698
G1 X147.676 Y92.423 E0.01698
G1 X147.778 Y92.955 E0.01698
G1 X147.813 Y93.517 E0.01766
G1 X147.813 Y137.473 E1.37823
G1 X147.778 Y138.035 E0.01766
G1 X147.676 Y138.567 E0.01698
G1 X147.509 Y139.082 E0.01698
G1 X147.278 Y139.572 E0.01698
G1 X146.988 Y140.029 E0.01698
G1 X146.643 Y140.447 E0.01698
G1 X146.248 Y140.817 E0.01698
G1 X145.810 Y141.135 E0.01698
G1 X145.336 Y141.396 E0.01698
G1 X144.832 Y141.596 E0.01698
G1 X144.308 Y141.730 E0.01698
G1 X143.771 Y141.798 E0.01698
G1 X87.229 Y141.798 E1.77282
G1 X86.692 Y141.730 E0.01698
G1 X86.168 Y141.596 E0.01698
G1 X85.664 Y141.396 E0.01698
G1 X85.190 Y141.135 E0.01698
G1 X84.752 Y140.817 E0.01698
G1 X84.357 Y140.447 E0.01698
G1 X84.012 Y140.029 E0.01698
G1 X83.722 Y139.572 E0.01698
G1 X83.491 Y139.082 E0.01698
G1 X83.324 Y138.567 E0.01698
G1 X83.222 Y138.035 E0.01698
G1 X83.187 Y137.473 E0.01766
G1 X83.187 Y93.517 E1.37823
G1 X83.222 Y92.955 E0.01766
G1 X83.324 Y92.423 E0.01698
G1 X83.491 Y91.908 E0.01698
G1 X83.722 Y91.418 E0.01698
G1 X84.012 Y90.961 E0.01698
G1 X84.357 Y90.544 E0.01698
G1 X84.752 Y90.173 E0.01698
G1 X85.190 Y89.855 E0.01698
G1 X85.664 Y89.594 E0.01698
G1 X86.255 Y89.372 E0.01978
G1 E-3.50000 F3600.000
;WIPE_START
G1 F7200.000
G1 X86.270 Y92.372 E-1.42500
;WIPE_END
G1 E-0.07500 F3600.000
G1 X86.690 Y100.805 F9000.000
G1 E5.00000 F2400.000
;TYPE:External perimeter
G1 F1200.000
G1 X138.310 Y100.805 E1.61851
G1 X138.310 Y88.815 E0.37594
G1 X143.794 Y88.815 E0.17196
G1 X144.379 Y88.889 E0.01846
G1 X144.949 Y89.035 E0.01846
G1 X145.497 Y89.252 E0.01846
G1 X146.013 Y89.536 E0.01846
G1 X146.489 Y89.882 E0.01846
G1 X146.918 Y90.285 E0.01846
G1 X147.294 Y90.739 E0.01846
G1 X147.609 Y91.236 E0.01846
G1 X147.860 Y91.769 E0.01846
G1 X148.042 Y92.329 E0.01846
G1 X148.152 Y92.907 E0.01846
G1 X148.190 Y93.505 E0.01877
G1 X148.190 Y137.485 E1.37898
G1 X148.152 Y138.083 E0.01877
G1 X148.042 Y138.661 E0.01846
G1 X147.860 Y139.221 E0.01846
G1 X147.609 Y139.754 E0.01846
G1 X147.294 Y140.251 E0.01846
G1 X146.918 Y140.705 E0.01846
G1 X146.489 Y141.108 E0.01846
G1 X146.013 Y141.454 E0.01846
G1 X145.497 Y141.738 E0.01846
G1 X144.949 Y141.955 E0.01846
G1 X144.379 Y142.101 E0.01846
G1 X143.794 Y142.175 E0.01846
G1 X87.206 Y142.175 E1.77431
G1 X86.621 Y142.101 E0.01846
G1 X86.051 Y141.955 E0.01846
G1 X85.503 Y141.738 E0.01846
G1 X84.987 Y141.454 E0.01846
G1 X84.511 Y141.108 E0.01846
G1 X84.082 Y140.705 E0.01846
G1 X83.706 Y140.251 E0.01846
G1 X83.391 Y139.754 E0.01846
G1 X83.140 Y139.221 E0.01846
G1 X82.958 Y138.661 E0.01846
G1 X82.848 Y138.083 E0.01846
G1 X82.810 Y137.485 E0.01877
G1 X82.810 Y93.505 E1.37898
G1 X82.848 Y92.907 E0.01877
G1 X82.958 Y92.329 E0.01846
G1 X83.140 Y91.769 E0.01846
G1 X83.391 Y91.236 E0.01846
G1 X83.706 Y90.739 E0.01846
G1 X84.082 Y90.285 E0.01846
G1 X84.511 Y89.882 E0.01846
G1 X84.987 Y89.536 E0.01846
G1 X85.503 Y89.252 E0.01846
G1 X86.051 Y89.035 E0.01846
G1 X86.690 Y88.880 E0.02062
G1 X86.690 Y100.745 E0.37202
G1 X86.697 Y101.205 F9000.000
G1 E-3.50000 F3600.000
;WIPE_START
G1 F7200.000
G1 X89.690 Y100.749 E-1.42500
;WIPE_END
G1 E-0.07500 F3600.000
G1 X145.525 Y89.827 F9000.000
G1 E5.00000 F2400.000
;TYPE:Solid infill
;WIDTH:0.421583
G1 F1200.000
G1 X146.440 Y90.742 E0.04075
G1 X146.759 Y91.127 E0.01574
G1 X147.030 Y91.554 E0.01593
G1 X147.279 Y92.117 E0.01937
G1 X144.880 Y89.718 E0.10683
G1 X144.745 Y89.664 E0.00459
G1 X144.152 Y89.525 E0.01916
G1 X147.468 Y92.841 E0.14764
G1 X147.496 Y92.990 E0.00479
G1 X147.524 Y93.433 E0.01396
G1 X143.566 Y89.475 E0.17624
G1 X143.031 Y89.475 E0.01686
G1 X147.530 Y93.974 E0.20034
G1 X147.530 Y94.510 E0.01686
G1 X142.495 Y89.475 E0.22419
G1 X141.960 Y89.475 E0.01686
G1 X147.530 Y95.045 E0.24803
G1 X147.530 Y95.581 E0.01686
G1 X141.424 Y89.475 E0.27188
G1 X140.889 Y89.475 E0.01686
G1 X147.530 Y96.116 E0.29572
G1 X147.530 Y96.652 E0.01686
G1 X140.353 Y89.475 E0.31957
G1 X139.818 Y89.475 E0.01686
G1 X147.530 Y97.187 E0.34341
G1 X147.530 Y97.723 E0.01686
G1 X139.282 Y89.475 E0.36726
G1 X138.970 Y89.475 E0.00984
G1 X138.970 Y89.698 E0.00703
G1 X147.530 Y98.258 E0.38117
G1 X147.530 Y98.794 E0.01686
G1 X138.970 Y90.233 E0.38117
G1 X138.970 Y90.769 E0.01686
G1 X147.530 Y99.329 E0.38117
G1 X147.530 Y99.865 E0.01686
G1 X138.970 Y91.304 E0.38117
G1 X138.970 Y91.840 E0.01686
G1 X147.530 Y100.400 E0.38117
G1 X147.530 Y100.936 E0.01686
G1 X138.970 Y92.375 E0.38117
G1 X138.970 Y92.911 E0.01686
G1 X147.530 Y101.471 E0.38117
G1 X147.530 Y102.007 E0.01686
G1 X138.970 Y93.447 E0.38117
G1 X138.970 Y93.982 E0.01686
G1 X147.530 Y102.542 E0.38117
G1 X147.530 Y103.078 E0.01686
G1 X138.970 Y94.518 E0.38117
G1 X138.970 Y95.053 E0.01686
G1 X147.530 Y103.613 E0.38117
G1 X147.530 Y104.149 E0.01686
G1 X138.970 Y95.589 E0.38117
G1 X138.970 Y96.124 E0.01686
G1 X147.530 Y104.684 E0.38117
G1 X147.530 Y105.220 E0.01686
G1 X138.970 Y96.660 E0.38117
G1 X138.970 Y97.195 E0.01686
G1 X147.530 Y105.755 E0.38117
G1 X147.530 Y106.291 E0.01686
G1 X138.970 Y97.731 E0.38117
G1 X138.970 Y98.266 E0.01686
G1 X147.530 Y106.826 E0.38117
G1 X147.530 Y107.362 E0.01686
G1 X138.970 Y98.802 E0.38117
G1 X138.970 Y99.337 E0.01686
G1 X147.530 Y107.897 E0.38117
G1 X147.530 Y108.433 E0.01686
G1 X138.970 Y99.873 E0.38117
G1 X138.970 Y100.408 E0.01686
G1 X147.530 Y108.968 E0.38117
G1 X147.530 Y109.504 E0.01686
G1 X138.970 Y100.944 E0.38117
G1 X138.970 Y101.465 E0.01641
G1 X138.956 Y101.465 E0.00045
G1 X147.530 Y110.039 E0.38180
G1 X147.530 Y110.575 E0.01686
G1 X138.420 Y101.465 E0.40565
G1 X137.885 Y101.465 E0.01686
G1 X147.530 Y111.110 E0.42949
G1 X147.530 Y111.646 E0.01686
G1 X137.349 Y101.465 E0.45334
G1 X136.814 Y101.465 E0.01686
G1 X147.530 Y112.181 E0.47718
G1 X147.530 Y112.717 E0.01686
G1 X136.278 Y101.465 E0.50103
G1 X135.743 Y101.465 E0.01686
G1 X147.530 Y113.252 E0.52487
G1 X147.530 Y113.788 E0.01686
G1 X135.207 Y101.465 E0.54872
G1 X134.672 Y101.465 E0.01686
G1 X147.530 Y114.323 E0.57256
G1 X147.530 Y114.859 E0.01686
G1 X134.136 Y101.465 E0.59641
G1 X133.601 Y101.465 E0.01686
G1 X147.530 Y115.395 E0.62025
G1 X147.530 Y115.930 E0.01686
G1 X133.065 Y101.465 E0.64410
G1 X132.530 Y101.465 E0.01686
G1 X147.530 Y116.466 E0.66794
G1 X147.530 Y117.001 E0.01686
G1 X131.994 Y101.465 E0.69179
G1 X131.459 Y101.465 E0.01686
G1 X147.530 Y117.537 E0.71563
G1 X147.530 Y118.072 E0.01686
G1 X130.923 Y101.465 E0.73948
G1 X130.387 Y101.465 E0.01686
G1 X147.530 Y118.608 E0.76332
G1 X147.530 Y119.143 E0.01686
G1 X129.852 Y101.465 E0.78717
G1 X129.316 Y101.465 E0.01686
G1 X147.530 Y119.679 E0.81101
G1 X147.530 Y120.214 E0.01686
G1 X128.781 Y101.465 E0.83486
G1 X128.245 Y101.465 E0.01686
G1 X147.530 Y120.750 E0.85871
G1 X147.530 Y121.285 E0.01686
G1 X127.710 Y101.465 E0.88255
G1 X127.174 Y101.465 E0.01686
G1 X147.530 Y121.821 E0.90640
G1 X147.530 Y122.356 E0.01686
G1 X126.639 Y101.465 E0.93024
G1 X126.103 Y101.465 E0.01686
G1 X147.530 Y122.892 E0.95409
G1 X147.530 Y123.427 E0.01686
G1 X125.568 Y101.465 E0.97793
G1 X125.032 Y101.465 E0.01686
G1 X147.530 Y123.963 E1.00178
G1 X147.530 Y124.498 E0.01686
G1 X124.497 Y101.465 E1.02562
G1 X123.961 Y101.465 E0.01686
G1 X147.530 Y125.034 E1.04947
G1 X147.530 Y125.569 E0.01686
G1 X123.426 Y101.465 E1.07331
G1 X122.890 Y101.465 E0.01686
G1 X147.530 Y126.105 E1.09716
G1 X147.530 Y126.640 E0.01686
G1 X122.355 Y101.465 E1.12100
G1 X121.819 Y101.465 E0.01686
G1 X147.530 Y127.176 E1.14485
G1 X147.530 Y127.711 E0.01686
G1 X121.284 Y101.465 E1.16869
G1 X120.748 Y101.465 E0.01686
G1 X147.530 Y128.247 E1.19254
G1 X147.530 Y128.782 E0.01686
G1 X120.213 Y101.465 E1.21638
G1 X119.677 Y101.465 E0.01686
G1 X147.530 Y129.318 E1.24023
G1 X147.530 Y129.853 E0.01686
G1 X119.142 Y101.465 E1.26407
G1 X118.606 Y101.465 E0.01686
G1 X147.530 Y130.389 E1.28792
G1 X147.530 Y130.924 E0.01686
G1 X118.071 Y101.465 E1.31176
G1 X117.535 Y101.465 E0.01686
G1 X147.530 Y131.460 E1.33561
G1 X147.530 Y131.995 E0.01686
G1 X117.000 Y101.465 E1.35945
G1 X116.464 Y101.465 E0.01686
G1 X147.530 Y132.531 E1.38330
G1 X147.530 Y133.066 E0.01686
G1 X115.929 Y101.465 E1.40714
G1 X115.393 Y101.465 E0.01686
G1 X147.530 Y133.602 E1.43099
G1 X147.530 Y134.137 E0.01686
G1 X114.858 Y101.465 E1.45483
G1 X114.322 Y101.465 E0.01686
G1 X147.530 Y134.673 E1.47868
G1 X147.530 Y135.208 E0.01686
G1 X113.787 Y101.465 E1.50252
G1 X113.251 Y101.465 E0.01686
G1 X147.530 Y135.744 E1.52637
G1 X147.530 Y136.279 E0.01686
G1 X112.716 Y101.465 E1.55021
G1 X112.180 Y101.465 E0.01686
G1 X147.530 Y136.815 E1.57406
G1 X147.530 Y137.350 E0.01686
G1 X111.645 Y101.465 E1.59790
G1 X111.109 Y101.465 E0.01686
G1 X147.505 Y137.861 E1.62064
G1 X147.434 Y138.326 E0.01480
G1 X110.574 Y101.465 E1.64133
G1 X110.038 Y101.465 E0.01686
G1 X147.320 Y138.747 E1.66010
G1 X147.245 Y138.978 E0.00764
G1 X147.172 Y139.134 E0.00544
G1 X109.503 Y101.465 E1.67733
G1 X108.967 Y101.465 E0.01686
G1 X146.994 Y139.492 E1.69327
G1 X146.786 Y139.820 E0.01222
G1 X108.432 Y101.465 E1.70785
G1 X107.896 Y101.465 E0.01686
G1 X146.548 Y140.117 E1.72111
G1 X146.288 Y140.392 E0.01193
G1 X107.361 Y101.465 E1.73335
G1 X106.825 Y101.465 E0.01686
G1 X146.005 Y140.645 E1.74459
G1 X145.695 Y140.870 E0.01207
G1 X106.290 Y101.465 E1.75462
G1 X105.754 Y101.465 E0.01686
G1 X145.353 Y141.064 E1.76326
G1 X144.985 Y141.231 E0.01274
G1 X105.219 Y101.465 E1.77070
G1 X104.683 Y101.465 E0.01686
G1 X144.585 Y141.367 E1.77676
G1 X144.255 Y141.452 E0.01074
G1 X144.148 Y141.465 E0.00339
G1 X104.147 Y101.465 E1.78114
G1 X103.612 Y101.465 E0.01686
G1 X143.662 Y141.515 E1.78336
G1 X143.127 Y141.515 E0.01686
G1 X103.076 Y101.465 E1.78336
G1 X102.541 Y101.465 E0.01686
G1 X142.591 Y141.515 E1.78336
G1 X142.056 Y141.515 E0.01686
G1 X102.005 Y101.465 E1.78336
G1 X101.470 Y101.465 E0.01686
G1 X141.520 Y141.515 E1.78336
G1 X140.985 Y141.515 E0.01686
G1 X100.934 Y101.465 E1.78336
G1 X100.399 Y101.465 E0.01686
G1 X140.449 Y141.515 E1.78336
G1 X139.914 Y141.515 E0.01686
G1 X99.863 Y101.465 E1.78336
G1 X99.328 Y101.465 E0.01686
G1 X139.378 Y141.515 E1.78336
G1 X138.843 Y141.515 E0.01686
G1 X98.792 Y101.465 E1.78336
G1 X98.257 Y101.465 E0.01686
G1 X138.307 Y141.515 E1.78336
G1 X137.772 Y141.515 E0.01686
G1 X97.721 Y101.465 E1.78336
G1 X97.186 Y101.465 E0.01686
G1 X137.236 Y141.515 E1.78336
G1 X136.701 Y141.515 E0.01686
G1 X96.650 Y101.465 E1.78336
G1 X96.115 Y101.465 E0.01686
G1 X136.165 Y141.515 E1.78336
G1 X135.630 Y141.515 E0.01686
G1 X95.579 Y101.465 E1.78336
G1 X95.044 Y101.465 E0.01686
G1 X135.094 Y141.515 E1.78336
G1 X134.559 Y141.515 E0.01686
G1 X94.508 Y101.465 E1.78336
G1 X93.973 Y101.465 E0.01686
G1 X134.023 Y141.515 E1.78336
G1 X133.488 Y141.515 E0.01686
G1 X93.437 Y101.465 E1.78336
G1 X92.902 Y101.465 E0.01686
G1 X132.952 Y141.515 E1.78336
G1 X132.417 Y141.515 E0.01686
G1 X92.366 Y101.465 E1.78336
G1 X91.831 Y101.465 E0.01686
G1 X131.881 Y141.515 E1.78336
G1 X131.346 Y141.515 E0.01686
G1 X91.295 Y101.465 E1.78336
G1 X90.760 Y101.465 E0.01686
G1 X130.810 Y141.515 E1.78336
G1 X130.275 Y141.515 E0.01686
G1 X90.224 Y101.465 E1.78336
G1 X89.689 Y101.465 E0.01686
G1 X129.739 Y141.515 E1.78336
G1 X129.204 Y141.515 E0.01686
G1 X89.153 Y101.465 E1.78336
G1 X88.618 Y101.465 E0.01686
G1 X128.668 Y141.515 E1.78336
G1 X128.133 Y141.515 E0.01686
G1 X88.082 Y101.465 E1.78336
G1 X87.547 Y101.465 E0.01686
G1 X127.597 Y141.515 E1.78336
G1 X127.062 Y141.515 E0.01686
G1 X86.841 Y101.295 E1.79091
G1 E-3.50000 F3600.000
;WIPE_START
G1 F7200.000
G1 X88.963 Y103.417 E-1.42500
;WIPE_END
G1 E-0.07500 F3600.000
G1 X86.200 Y89.943 F9000.000
G1 E5.00000 F2400.000
G1 F1200.000
G1 X86.015 Y89.759 E0.00821
G1 X85.647 Y89.926 E0.01274
G1 X86.030 Y90.309 E0.01706
G1 X86.030 Y90.845 E0.01686
G1 X85.306 Y90.120 E0.03226
G1 X84.995 Y90.345 E0.01207
G1 X86.030 Y91.380 E0.04608
G1 X86.030 Y91.916 E0.01686
G1 X84.712 Y90.598 E0.05868
G1 X84.452 Y90.873 E0.01193
G1 X86.030 Y92.451 E0.07028
G1 X86.030 Y92.987 E0.01686
G1 X84.214 Y91.170 E0.08088
G1 X84.006 Y91.498 E0.01222
G1 X86.030 Y93.522 E0.09014
G1 X86.030 Y94.058 E0.01686
G1 X83.828 Y91.856 E0.09805
G1 X83.755 Y92.012 E0.00544
G1 X83.680 Y92.243 E0.00764
G1 X86.030 Y94.593 E0.10466
G1 X86.030 Y95.129 E0.01686
G1 X83.566 Y92.664 E0.10973
G1 X83.495 Y93.129 E0.01480
G1 X86.030 Y95.664 E0.11289
G1 X86.030 Y96.200 E0.01686
G1 X83.470 Y93.640 E0.11400
G1 X83.470 Y94.175 E0.01686
G1 X86.030 Y96.735 E0.11400
G1 X86.030 Y97.271 E0.01686
G1 X83.470 Y94.711 E0.11400
G1 X83.470 Y95.246 E0.01686
G1 X86.030 Y97.806 E0.11400
G1 X86.030 Y98.342 E0.01686
G1 X83.470 Y95.782 E0.11400
G1 X83.470 Y96.317 E0.01686
G1 X86.030 Y98.877 E0.11400
G1 X86.030 Y99.413 E0.01686
G1 X83.470 Y96.853 E0.11400
G1 X83.470 Y97.388 E0.01686
G1 X86.030 Y99.948 E0.11400
G1 X86.030 Y100.484 E0.01686
